icons/svg/shields/h_red_round_big_shield.svg

<?xml version="1.0" encoding="UTF-8" standalone="no"?>
<!-- Generator: Adobe Illustrator 16.0.4, SVG Export Plug-In . SVG Version: 6.00 Build 0)  -->

<svg
   xmlns:dc="http://purl.org/dc/elements/1.1/"
   xmlns:cc="http://creativecommons.org/ns#"
   xmlns:rdf="http://www.w3.org/1999/02/22-rdf-syntax-ns#"
   xmlns:svg="http://www.w3.org/2000/svg"
   xmlns="http://www.w3.org/2000/svg"
   xmlns:sodipodi="http://sodipodi.sourceforge.net/DTD/sodipodi-0.dtd"
   xmlns:inkscape="http://www.inkscape.org/namespaces/inkscape"
   version="1.1"
   id="Слой_1"
   x="0px"
   y="0px"
   width="24"
   height="24"
   viewBox="0 0 23.999999 24"
   enable-background="new 0 0 17.113 17.143"
   xml:space="preserve"
   inkscape:version="0.91 r13725"
   sodipodi:docname="h_red_round_big_shield.svg"><metadata
     id="metadata13"><rdf:RDF><cc:Work
         rdf:about=""><dc:format>image/svg+xml</dc:format><dc:type
           rdf:resource="http://purl.org/dc/dcmitype/StillImage" /><dc:title /></cc:Work></rdf:RDF></metadata><defs
     id="defs11" /><sodipodi:namedview
     pagecolor="#ffffff"
     bordercolor="#666666"
     borderopacity="1"
     objecttolerance="10"
     gridtolerance="10"
     guidetolerance="10"
     inkscape:pageopacity="0"
     inkscape:pageshadow="2"
     inkscape:window-width="1920"
     inkscape:window-height="1006"
     id="namedview9"
     showgrid="false"
     inkscape:zoom="19.468845"
     inkscape:cx="4.0749265"
     inkscape:cy="13.952955"
     inkscape:window-x="1920"
     inkscape:window-y="0"
     inkscape:window-maximized="1"
     inkscape:current-layer="Слой_1"
     inkscape:snap-object-midpoints="true"
     inkscape:snap-center="true" /><path
     d="m 11.999266,0.97577525 c 6.080173,0 11.026181,4.90453845 11.026181,11.02495875 0,6.076471 -4.946008,11.023491 -11.026181,11.023491 -6.0787065,0 -11.02471618,-4.94702 -11.02471618,-11.023491 0,-6.1204203 4.94600968,-11.02495875 11.02471618,-11.02495875 l 0,0 z"
     id="path5"
     inkscape:connector-curvature="0"
     style="color:#000000;clip-rule:nonzero;display:inline;overflow:visible;visibility:visible;opacity:0.85100002;fill:#ee6c99;fill-opacity:1;fill-rule:nonzero;stroke:none;marker:none;enable-background:accumulate;isolation:auto;mix-blend-mode:normal;color-interpolation:sRGB;color-interpolation-filters:linearRGB;solid-color:#000000;solid-opacity:1;stroke-width:0.03244878;stroke-linecap:butt;stroke-linejoin:miter;stroke-miterlimit:4;stroke-dasharray:none;stroke-dashoffset:0;stroke-opacity:1;filter-blend-mode:normal;filter-gaussianBlur-deviation:0;color-rendering:auto;image-rendering:auto;shape-rendering:auto;text-rendering:auto" /><path
     style="color:#000000;display:inline;overflow:visible;visibility:visible;fill:#ffffff;fill-opacity:0.54655869;fill-rule:nonzero;stroke:none;stroke-width:1;stroke-linecap:butt;stroke-linejoin:miter;stroke-miterlimit:4;stroke-dasharray:none;stroke-dashoffset:0;stroke-opacity:1;marker:none;enable-background:accumulate;clip-rule:nonzero;opacity:1;isolation:auto;mix-blend-mode:normal;color-interpolation:sRGB;color-interpolation-filters:linearRGB;solid-color:#000000;solid-opacity:1;filter-blend-mode:normal;filter-gaussianBlur-deviation:0;color-rendering:auto;image-rendering:auto;shape-rendering:auto;text-rendering:auto"
     d="M 11.999999,-4.4472651e-8 C 5.3608684,-4.4472651e-8 -9.5367432e-7,5.3587276 -9.5367432e-7,12 -9.5367432e-7,18.600732 5.3608684,24 11.999999,24 c 6.640533,0 12,-5.399266 12,-12 0,-6.6412724 -5.359467,-12.000000044472651 -12,-12.000000044472651 z m 0,0.975000094472651 c 6.080174,0 11.025,4.90457995 11.025,11.02499995 0,6.07647 -4.944825,11.025 -11.025,11.025 -6.0787054,0 -11.025,-4.94853 -11.025,-11.025 0,-6.12042 4.9462946,-11.02499995 11.025,-11.02499995 z"
     id="path3-3"
     inkscape:connector-curvature="0" /></svg>

<svg width="24" height="24" viewBox="0 0 24 24" fill="none" xmlns="http://www.w3.org/2000/svg">
<g clip-path="url(#clip0)">
<path opacity="0.851" d="M11.9993 0.975769C18.0794 0.975769 23.0254 5.88031 23.0254 12.0007C23.0254 18.0772 18.0794 23.0242 11.9993 23.0242C5.92056 23.0242 0.974548 18.0772 0.974548 12.0007C0.974548 5.88031 5.92056 0.975769 11.9993 0.975769V0.975769Z" fill="#EE6C99"/>
<path d="M12 0C5.36087 0 0 5.35873 0 12C0 18.6007 5.36087 24 12 24C18.6405 24 24 18.6007 24 12C24 5.35873 18.6405 0 12 0V0ZM12 0.975C18.0802 0.975 23.025 5.87958 23.025 12C23.025 18.0765 18.0802 23.025 12 23.025C5.92129 23.025 0.975 18.0765 0.975 12C0.975 5.87958 5.92129 0.975 12 0.975V0.975Z" fill="white" fill-opacity="0.546559"/>
</g>
<defs>
<clipPath id="clip0">
<path d="M0 0H24V24H0V0Z" fill="white"/>
</clipPath>
</defs>
</svg>
